X:1
T:Aller Augen
T:Heinrich Schütz (1585-1672)
%%score [ 1 2 3 4 ]
L:1/8
M:4/2
K:G
V:1 treble nm="unbenannt_1"
V:2 treble nm="unbenannt_2"
V:3 treble-8 nm="unbenannt 1_1"
V:4 bass nm="unbenannt 1_2"
V:1
 G2 A2 B4 B2 A4 B2 | E2 F2 A4 F4 z2 F F | F F F F G2 G2 A4 A2 B2 | (A2 G4) F2 G4 z2 G2 | %4
w: Al- ler Au- gen war- ten|auf Dich, Her- re, und Du|gi- best ih- nen ih- re Spei- se zu|sei- * ner Zeit. Du|
 F2 A A E2 F2 G4 F2 F2 | G2 G G A F G A B2 B B A2 G2 | F8 E8 |] %7
w: tust Dei- ne mil- de Hand auf und|sät- ti- gest al- les, was da le- bet, mit Wohl- ge-|fal- len.|
V:2
 E2 F2 G4 G2 F4 F2 | G2 F2 E4 ^D4 z2 D D | ^D D D D E2 E2 F4 F2 G2 | E4 D4 D4 z2 D2 | %4
w: Al- ler Au- gen war- ten|auf Dich, Her- re, und Du|gi- best ih- nen ih- re Spei- se zu|sei- ner Zeit. Du|
 D2 E E G2 F2 E4 ^D2 D2 | E2 E E F D E F G2 G G E2 E2 | (^D2 E4 D2) E8 |] %7
w: tust Dei- ne mil- de Hand auf und|sät- ti- gest al- les, was da le- bet, mit Wohl- ge-|fal- * * len.|
V:3
 B2 d2 d4 d2 d4 d2 | B2 B2 E4 B4 z2 B B | B B B B B2 B2 d4 d2 d2 | c4 A4 G4 z2 B2 | %4
w: Al- ler Au- gen war- ten|auf Dich, Her- re, und Du|gi- best ih- nen ih- re Spei- se zu|sei- ner Zeit. Du|
 A2 c c B2 B2 B4 B2 B2 | B2 B B d A c c d2 d d c2 B2 | B8 B8 |] %7
w: tust Dei- ne mil- de Hand auf und|sät- ti- gest al- les, was da le- bet, mit Wohl- ge-|fal- len.|
V:4
 E,2 D,2 G,4 G,2 D,4 B,,2 | E,2 D,2 C,4 B,,4 z2 B,, B,, | B,, B,, B,, B,, E,2 E,2 D,4 D,2 B,,2 | %3
w: Al- ler Au- gen war- ten|auf Dich, Her- re, und Du|gi- best ih- nen ih- re Spei- se zu|
 C,4 D,4 G,,4 z2 G,,2 | D,2 A,, A,, E,2 ^D,2 E,4 B,,2 B,,2 | %5
w: sei- ner Zeit. Du|tust Dei- ne mil- de Hand auf und|
 E,2 E, E, D, D, C, A,, G,,2 G,, G,, A,,2 E,2 | B,,8 E,8 |] %7
w: sät- ti- gest al- les, was da le- bet, mit Wohl- ge-|fal- len.|

